X:1010541
T:[ID 7-107]
T:Bezeichnung standardisiert: Anglaise
T:Angelaise
T:In dieser Quelle auch als: Angeloise
C:Urheber unbekannt
C:Erstbeleg: 1776-1791 (Datum in der schriftlichen Quelle)
C:Datum in der hier transkribierten schriftlichen Quelle: 1799
O:Deutschland; Westfalen; Dinker
S:"Tanzsammlung Dahlhoff" Staatsbibliothek zu Berlin, Musiksammlung, Mus. ms. 40182, Buch 10, 054/1, PDF Nr: 1270
S:Scan online: http://resolver.staatsbibliothek-berlin.de/SBB0000969000001270
F:http://simonwascher.info/TradArchiv/Dahlhoff/ file-version 2017-11-21
Z:Erfassung in Capella Richmud Rollenbeck, Konversion nach MusicXML Joergen Lang, Konversion nach abc und abc Lektorat Simon Wascher
L:1/16
M:2/4
K:G
V:1 name="Primo"
GABc d2d2 | e2d2g2d2 | c2B2A2G2 | FGAFD4 | GABc d2d2 | e2d2g2d2 | "^1)"c2A2F2A2 | G4G,4 ::
dedc B2B2 | c2c2A4 | cdcB A2A2 | B2B2G4 | GABc d2d2 | e2d2g2d2 | "^1)"c2A2F2A2 | G4G,4 ::
G6B2 | (B2A2)(A2G2) | A2F2A2c2 | c4B4 | G4z2B2 | (B2A2)(A2G2) | A2c2F2A2 | G4G,4 H:|
c2B2 AcAF |

